X: 42714
T: Whistling Postman, The
R: hornpipe
M: 4/4
K: Dmajor
|:FG|ABAG FGAF|GABc dAFA|GABA GFED|CDEF E2FG|
ABAG FGAF|GABc dAFA|dfeg fdec|d2dc d2:|
|:Ac|dcde fgaf|edef ecAc|dcde fgaf|edef e2Ac|
dcde fgaf|edef ecAc|d2AF Bgec|d2dc d2:|

